X:74
T: EIN SCHAEFER WOL UEBER DIE BRUECKE ZOG
N: E0043E
O: Europa, Mitteleuropa, Deutschland, Hessen - Nassau
R: erzaehlendes Volks - Lied, Ritter - Sage
M: 6/8
L: 1/16
K: G
D2 | G2D2G2B2G2B2 | d2e2d2B6 |
d3dddA4e2 | d4dcB4
B2 | B3BB2B2A2B2 | d2c2d2z6 |
B3Bced4d2 | B3BB2B2A2B2 | d2c2d2B4

@@@ Tune index: 3724
